flaticon/sport/podium.svg

<svg xmlns="http://www.w3.org/2000/svg" width="32" height="32" viewBox="0 0 24 24">
    <path d="M 21.089844 15.054688 L 16.742188 15.050781 C 16.515625 15.050781 16.269531 14.925781 16.269531 14.644531 L 16.269531 11.453125 C 16.269531 10.746094 15.695312 10.167969 14.988281 10.167969 L 14.644531 10.167969 C 13.785156 10.167969 13.339844 9.492188 12.8125 8.449219 C 13.257812 8.3125 13.871094 7.984375 14.484375 7.203125 C 14.734375 7.28125 14.992188 7.320312 15.253906 7.320312 C 16.710938 7.320312 17.898438 6.136719 17.898438 4.679688 C 17.898438 3.554688 17.179688 2.570312 16.148438 2.195312 C 16.210938 1.746094 16.253906 1.304688 16.265625 0.910156 C 16.277344 0.671875 16.1875 0.445312 16.019531 0.273438 C 15.851562 0.0976562 15.617188 0 15.375 0 L 9.015625 0 C 8.773438 0 8.539062 0.0976562 8.371094 0.273438 C 8.203125 0.445312 8.117188 0.671875 8.125 0.910156 C 8.136719 1.308594 8.183594 1.75 8.242188 2.199219 C 7.21875 2.578125 6.507812 3.5625 6.507812 4.679688 C 6.507812 6.136719 7.695312 7.320312 9.152344 7.320312 C 9.410156 7.320312 9.664062 7.28125 9.910156 7.207031 C 10.527344 7.984375 11.148438 8.3125 11.59375 8.449219 C 11.070312 9.492188 10.621094 10.167969 9.761719 10.167969 L 9.011719 10.167969 C 8.304688 10.167969 7.730469 10.746094 7.730469 11.453125 L 7.730469 16.613281 C 7.730469 16.875 7.519531 17.085938 7.257812 17.085938 L 2.910156 17.085938 C 2.203125 17.085938 1.628906 17.660156 1.628906 18.367188 L 1.628906 23.085938 C 1.628906 23.589844 2.035156 23.996094 2.539062 23.996094 L 21.460938 24 C 21.964844 24 22.371094 23.589844 22.371094 23.089844 L 22.371094 16.335938 C 22.371094 15.628906 21.796875 15.054688 21.089844 15.054688 Z M 15.617188 4.953125 C 15.671875 4.765625 15.722656 4.570312 15.761719 4.371094 C 15.785156 4.277344 15.804688 4.167969 15.828125 4.054688 C 15.84375 3.972656 15.863281 3.886719 15.878906 3.800781 C 15.882812 3.785156 15.886719 3.765625 15.890625 3.75 C 15.933594 3.511719 15.980469 3.269531 16.023438 3.015625 C 16.65625 3.3125 17.085938 3.953125 17.085938 4.679688 C 17.085938 5.6875 16.261719 6.507812 15.253906 6.507812 C 15.160156 6.507812 15.0625 6.5 14.972656 6.484375 C 15.019531 6.402344 15.0625 6.3125 15.105469 6.226562 C 15.140625 6.160156 15.175781 6.101562 15.207031 6.035156 C 15.257812 5.929688 15.300781 5.820312 15.34375 5.714844 C 15.375 5.644531 15.40625 5.578125 15.433594 5.507812 C 15.476562 5.390625 15.515625 5.269531 15.554688 5.144531 C 15.574219 5.082031 15.597656 5.019531 15.617188 4.953125 Z M 9.152344 6.507812 C 8.144531 6.507812 7.320312 5.6875 7.320312 4.679688 C 7.320312 3.960938 7.742188 3.320312 8.367188 3.023438 C 8.410156 3.273438 8.457031 3.515625 8.503906 3.75 C 8.503906 3.769531 8.507812 3.785156 8.511719 3.800781 C 8.53125 3.890625 8.546875 3.976562 8.5625 4.0625 C 8.585938 4.175781 8.609375 4.28125 8.628906 4.371094 C 8.671875 4.570312 8.71875 4.765625 8.773438 4.957031 C 8.792969 5.019531 8.816406 5.078125 8.835938 5.140625 C 8.875 5.265625 8.914062 5.390625 8.960938 5.507812 C 8.988281 5.582031 9.019531 5.648438 9.046875 5.71875 C 9.089844 5.824219 9.132812 5.929688 9.183594 6.03125 C 9.21875 6.101562 9.253906 6.171875 9.292969 6.238281 C 9.335938 6.320312 9.375 6.40625 9.421875 6.488281 C 9.332031 6.5 9.242188 6.507812 9.152344 6.507812 Z M 10.382812 6.480469 C 10.316406 6.386719 10.25 6.28125 10.183594 6.171875 C 10.175781 6.164062 10.167969 6.152344 10.160156 6.140625 C 9.824219 5.578125 9.578125 4.925781 9.425781 4.203125 C 9.402344 4.097656 9.378906 3.976562 9.351562 3.847656 C 9.347656 3.835938 9.347656 3.824219 9.34375 3.8125 C 9.320312 3.691406 9.292969 3.566406 9.269531 3.429688 C 9.265625 3.410156 9.261719 3.394531 9.257812 3.375 C 9.234375 3.242188 9.207031 3.101562 9.183594 2.957031 C 9.179688 2.941406 9.179688 2.921875 9.175781 2.90625 C 9.148438 2.757812 9.125 2.601562 9.101562 2.441406 C 9.019531 1.90625 8.953125 1.355469 8.9375 0.882812 C 8.9375 0.867188 8.945312 0.851562 8.957031 0.839844 C 8.964844 0.828125 8.984375 0.8125 9.015625 0.8125 L 15.375 0.8125 C 15.40625 0.8125 15.425781 0.828125 15.433594 0.839844 C 15.449219 0.851562 15.453125 0.867188 15.453125 0.882812 C 15.4375 1.347656 15.375 1.882812 15.292969 2.421875 C 15.292969 2.421875 15.292969 2.421875 15.292969 2.425781 C 15.191406 3.113281 15.058594 3.773438 14.96875 4.203125 C 14.8125 4.925781 14.566406 5.578125 14.230469 6.140625 C 14.226562 6.148438 14.222656 6.152344 14.21875 6.160156 C 14.148438 6.273438 14.078125 6.378906 14.011719 6.480469 C 13.113281 7.757812 12.269531 7.730469 12.242188 7.730469 L 12.203125 7.726562 L 12.171875 7.730469 C 12.136719 7.730469 11.285156 7.765625 10.382812 6.480469 Z M 12.203125 9.046875 C 12.40625 9.441406 12.636719 9.839844 12.929688 10.167969 L 11.476562 10.167969 C 11.769531 9.839844 12 9.441406 12.203125 9.046875 Z M 21.558594 23.089844 C 21.558594 23.140625 21.515625 23.1875 21.460938 23.1875 L 2.539062 23.183594 C 2.484375 23.183594 2.441406 23.140625 2.441406 23.085938 L 2.441406 18.367188 C 2.441406 18.109375 2.652344 17.898438 2.910156 17.898438 L 7.257812 17.898438 C 7.964844 17.898438 8.542969 17.324219 8.542969 16.613281 L 8.542969 11.453125 C 8.542969 11.195312 8.753906 10.984375 9.011719 10.984375 L 14.988281 10.984375 C 15.246094 10.984375 15.457031 11.195312 15.457031 11.453125 L 15.457031 14.644531 C 15.457031 15.339844 16.007812 15.863281 16.742188 15.863281 L 21.089844 15.867188 C 21.347656 15.867188 21.558594 16.078125 21.558594 16.335938 Z M 21.558594 23.089844"/>
    <path d="M12 11.796875C10.765625 11.796875 9.761719 12.800781 9.761719 14.035156 9.761719 15.265625 10.765625 16.269531 12 16.269531 13.234375 16.269531 14.238281 15.265625 14.238281 14.035156 14.238281 12.800781 13.234375 11.796875 12 11.796875zM12 15.457031C11.214844 15.457031 10.578125 14.820312 10.578125 14.035156 10.578125 13.25 11.214844 12.609375 12 12.609375 12.785156 12.609375 13.421875 13.25 13.421875 14.035156 13.421875 14.820312 12.785156 15.457031 12 15.457031zM18.507812 17.085938C17.273438 17.085938 16.269531 18.089844 16.269531 19.320312 16.269531 20.554688 17.273438 21.558594 18.507812 21.558594 19.742188 21.558594 20.746094 20.554688 20.746094 19.320312 20.746094 18.089844 19.742188 17.085938 18.507812 17.085938zM18.507812 20.746094C17.722656 20.746094 17.085938 20.105469 17.085938 19.320312 17.085938 18.535156 17.722656 17.898438 18.507812 17.898438 19.292969 17.898438 19.933594 18.535156 19.933594 19.320312 19.933594 20.105469 19.292969 20.746094 18.507812 20.746094zM5.492188 18.304688C4.257812 18.304688 3.253906 19.308594 3.253906 20.542969 3.253906 21.777344 4.257812 22.78125 5.492188 22.78125 6.726562 22.78125 7.730469 21.777344 7.730469 20.542969 7.730469 19.308594 6.726562 18.304688 5.492188 18.304688zM5.492188 21.964844C4.707031 21.964844 4.066406 21.328125 4.066406 20.542969 4.066406 19.757812 4.707031 19.117188 5.492188 19.117188 6.277344 19.117188 6.914062 19.757812 6.914062 20.542969 6.914062 21.328125 6.277344 21.964844 5.492188 21.964844zM5.492188 21.964844"/>
</svg>

<svg xmlns="http://www.w3.org/2000/svg" width="32" height="32" viewBox="0 0 24 24">
    <path d="M21.09 15.055l-4.348-.004c-.226 0-.472-.125-.472-.406v-3.192c0-.707-.575-1.285-1.282-1.285h-.343c-.86 0-1.305-.676-1.832-1.719.445-.136 1.058-.465 1.671-1.246.25.078.508.117.77.117a2.646 2.646 0 0 0 2.644-2.64c0-1.125-.718-2.11-1.75-2.485.063-.449.106-.89.118-1.285a.847.847 0 0 0-.246-.637.892.892 0 0 0-.645-.273h-6.36a.892.892 0 0 0-.644.273.862.862 0 0 0-.246.637c.012.399.059.84.117 1.29a2.657 2.657 0 0 0-1.734 2.48 2.646 2.646 0 0 0 2.644 2.64c.258 0 .512-.039.758-.113.617.777 1.238 1.106 1.684 1.242-.524 1.043-.973 1.719-1.832 1.719h-.75c-.707 0-1.282.578-1.282 1.285v5.16c0 .262-.21.473-.472.473H2.91c-.707 0-1.281.574-1.281 1.281v4.719c0 .504.406.91.91.91L21.461 24c.504 0 .91-.41.91-.91v-6.754c0-.707-.574-1.281-1.281-1.281zM15.617 4.953c.055-.187.106-.383.145-.582.023-.094.043-.203.066-.316.016-.082.035-.168.05-.254l.013-.051c.043-.238.09-.48.132-.734a1.843 1.843 0 0 1 1.063 1.664 1.834 1.834 0 0 1-2.113 1.804c.047-.082.09-.171.132-.257.036-.067.07-.125.102-.192.05-.105.094-.215.137-.32.031-.07.062-.137.09-.207.043-.117.082-.238.12-.363.02-.063.044-.125.063-.192zM9.152 6.508A1.834 1.834 0 0 1 7.32 4.68c0-.72.422-1.36 1.047-1.657.043.25.09.493.137.727 0 .02.004.035.008.05.02.09.035.177.05.263l.067.308c.043.2.09.395.144.586.02.063.043.121.063.184.039.125.078.25.125.367.027.074.059.14.086.21.043.106.086.212.137.313.035.07.07.14.109.207.043.082.082.168.129.25-.09.012-.18.02-.27.02zm1.23-.028a5.305 5.305 0 0 1-.198-.308c-.008-.008-.016-.02-.024-.031a6.302 6.302 0 0 1-.734-1.938c-.024-.105-.047-.226-.074-.355-.004-.012-.004-.024-.008-.035-.024-.122-.051-.247-.074-.383l-.012-.055c-.024-.133-.051-.273-.074-.418-.004-.016-.004-.035-.008-.05-.028-.15-.051-.305-.074-.466A13.756 13.756 0 0 1 8.937.883c0-.016.008-.031.02-.043a.07.07 0 0 1 .059-.027h6.359a.07.07 0 0 1 .059.027c.015.012.02.027.02.043-.017.465-.079 1-.161 1.539v.004a30.975 30.975 0 0 1-.324 1.777 6.407 6.407 0 0 1-.739 1.938l-.011.02c-.07.112-.14.218-.207.32-.899 1.277-1.742 1.25-1.77 1.25l-.039-.004-.031.003c-.035 0-.887.036-1.79-1.25zm1.821 2.567c.203.394.434.793.727 1.121h-1.453c.293-.328.523-.727.726-1.121zM21.56 23.09a.1.1 0 0 1-.098.098l-18.922-.004a.097.097 0 0 1-.098-.098v-4.719a.47.47 0 0 1 .47-.469h4.347c.707 0 1.285-.574 1.285-1.285v-5.16a.47.47 0 0 1 .469-.469h5.976a.47.47 0 0 1 .469.47v3.19c0 .696.55 1.22 1.285 1.22l4.348.003a.47.47 0 0 1 .469.469zm0 0"/>
    <path d="M12 11.797a2.24 2.24 0 0 0-2.238 2.238A2.24 2.24 0 0 0 12 16.27a2.24 2.24 0 0 0 2.238-2.235A2.24 2.24 0 0 0 12 11.797zm0 3.66a1.422 1.422 0 0 1-1.422-1.422c0-.785.637-1.426 1.422-1.426.785 0 1.422.641 1.422 1.426 0 .785-.637 1.422-1.422 1.422zm0 0M18.508 17.086a2.24 2.24 0 0 0-2.238 2.234 2.24 2.24 0 0 0 2.238 2.239 2.24 2.24 0 0 0 2.238-2.239 2.24 2.24 0 0 0-2.238-2.234zm0 3.66c-.785 0-1.422-.64-1.422-1.426 0-.785.637-1.422 1.422-1.422.785 0 1.426.637 1.426 1.422 0 .785-.641 1.426-1.426 1.426zm0 0M5.492 18.305a2.24 2.24 0 0 0-2.238 2.238 2.24 2.24 0 0 0 2.238 2.238 2.24 2.24 0 0 0 2.238-2.238 2.24 2.24 0 0 0-2.238-2.238zm0 3.66a1.425 1.425 0 0 1-1.426-1.422c0-.785.641-1.426 1.426-1.426.785 0 1.422.64 1.422 1.426 0 .785-.637 1.422-1.422 1.422zm0 0"/>
</svg>
